X: 40
T: No_137_Dream_Song.krn
%%abc-version 2.0
%%abcx-abcm2ps-target-version 5.9.1 (29 Sep 2008)
%%abc-creator hum2abc beta
%%abcx-conversion-date 2020/08/10 18:54:57
%%gracespace 0 6 6
%%humdrum-veritas 562324423
%%humdrum-veritas-data 2246674579
%%linebreak <none>
%%barnumbers 0
L: 1/8
M: 2/4
%%staves {1 2}
V: 1 clef=treble
V: 2 clef=bass
K: B
[V:1] [K:clef=treble][M:2/4]GG GF | 
[V:2] [K:clef=bass][M:2/4](3!accent!G,, z G,, (3!accent!G,, z G,, | 
[V:1] D3G | 
[V:2] z4 | 
[V:1] F3G/F/ | 
[V:2] z4 | 
[V:1] DDD2- ||  
[V:2] z4 ||  
[V:1] [M:3/4]D4D2 ||  
[V:2] [M:3/4]z6 ||  
[V:1] [M:2/4]F>FF2 ||  
[V:2] [M:2/4]z4 ||  
[V:1] [M:3/4]D2F2D2[K:clef=bass] ||  
[V:2] [M:3/4]z6 ||  
[V:1] [M:2/4]B,B,G,2 | 
[V:2] [M:2/4]z4 | 
[V:1] DD B,3/D/ | 
[V:2] z4 | 
[V:1] B,B, G,G, | 
[V:2] z4 | 
[V:1] G,4- | 
[V:2] z4 | 
[V:1] G,2G,2 | 
[V:2] z4 | 
[V:1] D,D, D,G, | 
[V:2] z4 | 
[V:1] F,2F,G, ||  
[V:2] z4 ||  
[V:1] [M:3/4]D,D,2<D,2D, ||  
[V:2] [M:3/4]z6 ||  
[V:1] [M:2/4]D,4- | 
[V:2] [M:2/4]z4 | 
[V:1] D,2[K:clef=treble]D2 | 
[V:2] z4 | 
[V:1] F>FF2 ||  
[V:2] z4 ||  
[V:1] [M:3/4]D2F2D2 ||  
[V:2] [M:3/4]z6 ||  
[V:1] [M:2/4]B,B,G,2 | 
[V:2] [M:2/4]z4 | 
[V:1] DD B,3/D/[K:clef=bass] | 
[V:2] z4 | 
[V:1] B,B, G,G, | 
[V:2] z4 | 
[V:1] G,4- | 
[V:2] z4 | 
[V:1] G,2G,2 | 
[V:2] z4 | 
[V:1] D,D, D,G, | 
[V:2] z4 | 
[V:1] F,2F,G, | 
[V:2] z4 | 
[V:1] D,D,D,2 | 
[V:2] z4 | 
[V:1] D,4 |]  
[V:2] z4 |]  


